X:128
T:Rakes of Kildare #2, The 
C:Joe Buchanan's Scottish Tome - Page 252.3
I:252 3
R:Jig
Z:Carl Allison
L:1/8
M:6/8
K:C
|: E | EAA A^GA | Bcd e2 ^f | g^fg ege | dBG G2 A |
EAA A^GA | Bcd e2 ^f | g^fe dBG | A3 A2 :|
a | aea aea | aea b2 a | g^fg ege | dBG G2 |1 a |2 A |1
aea aea | aea b2 a | g^fe dBG | A3 A2 :|

